src/img/icon-error.svg

<svg fill="none" height="32" viewBox="0 0 30 32" width="30" xmlns="http://www.w3.org/2000/svg"><path clip-rule="evenodd" d="m8.7867 31-8.7867-8.7867v-12.4266l8.7867-8.7867h12.4264l8.7869 8.7869v12.4262l-8.7869 8.7869z" fill="#6e5590" fill-rule="evenodd"/><path d="m13.9457 18.918-.462-6.732-.11-2.926h3.256l-.11 2.926-.462 6.732zm1.056 5.346c-.5573 0-1.0266-.1907-1.408-.572-.3666-.396-.55-.88-.55-1.452 0-.5867.1834-1.0707.55-1.452.3814-.396.8507-.594 1.408-.594.5574 0 1.0194.198 1.386.594.3814.3813.572.8653.572 1.452 0 .572-.1906 1.056-.572 1.452-.3666.3813-.8286.572-1.386.572z" fill="#fff"/></svg>

<svg width="30" height="32" viewBox="0 0 30 32" fill="none" xmlns="http://www.w3.org/2000/svg">
<path fill-rule="evenodd" clip-rule="evenodd" d="M8.7867 31L0 22.2133V9.7867L8.7867 1H21.2131L30 9.7869V22.2131L21.2131 31H8.7867Z" fill="#6E5590"/>
<path d="M13.9457 18.918L13.4837 12.186L13.3737 9.26H16.6297L16.5197 12.186L16.0577 18.918H13.9457ZM15.0017 24.264C14.4444 24.264 13.9751 24.0733 13.5937 23.692C13.2271 23.296 13.0437 22.812 13.0437 22.24C13.0437 21.6533 13.2271 21.1693 13.5937 20.788C13.9751 20.392 14.4444 20.194 15.0017 20.194C15.5591 20.194 16.0211 20.392 16.3877 20.788C16.7691 21.1693 16.9597 21.6533 16.9597 22.24C16.9597 22.812 16.7691 23.296 16.3877 23.692C16.0211 24.0733 15.5591 24.264 15.0017 24.264Z" fill="white"/>
</svg>
